X:256
T:xFox Hunt (Fone)
%%VWML:SBG-1-2--0
F:http://www.vwml.org/record/SBG/1/2/
Z:Original Sibelius transcriptions by M. & S. Graebe
M:6/8
I:linebreak $
K:Ab
V:1 treble nm="P1"
V:1
"^F. minor" CD=E | F F2 F2 GFG | =ECC ABc | BAG F2 C | FFG AGF |$ G=EC ABc | BAG F3 | F2 FF | %8
 AGA BAB | (c3 c) cB |$ AGF BAG | A2 G2 (3C=D=E65/64 | FFF GFG | G=EC ABc | BAG F2 x | %15

